packages/ffe-icons/icons/open/500/sm/chat.svg

<svg xmlns="http://www.w3.org/2000/svg" height="20" viewBox="0 -960 960 960" width="20"><path d="m231.869-231.869-73.317 73.317q-19.748 19.748-45.215 8.981-25.468-10.766-25.468-38.451V-789.13q0-34.483 24.259-58.742t58.742-24.259h618.26q34.483 0 58.742 24.259t24.259 58.742v474.26q0 34.483-24.259 58.742t-58.742 24.259H231.869Zm-30-83.001H789.13v-474.26H170.87v505.499l30.999-31.239Zm-30.999 0v-474.26 474.26ZM276-384h264q15.3 0 25.65-10.289 10.35-10.29 10.35-25.5Q576-435 565.65-445.5 555.3-456 540-456H276q-15.3 0-25.65 10.289-10.35 10.29-10.35 25.5Q240-405 250.35-394.5 260.7-384 276-384Zm0-132h408q15.3 0 25.65-10.289 10.35-10.29 10.35-25.5Q720-567 709.65-577.5 699.3-588 684-588H276q-15.3 0-25.65 10.289-10.35 10.29-10.35 25.5Q240-537 250.35-526.5 260.7-516 276-516Zm0-132h408q15.3 0 25.65-10.289 10.35-10.29 10.35-25.5Q720-699 709.65-709.5 699.3-720 684-720H276q-15.3 0-25.65 10.289-10.35 10.29-10.35 25.5Q240-669 250.35-658.5 260.7-648 276-648Z"/></svg>

<svg xmlns="http://www.w3.org/2000/svg" height="20" viewBox="0 -960 960 960" width="20"><path d="m231.87-231.87-73.32 73.32q-19.75 19.75-45.21 8.98-25.47-10.77-25.47-38.45v-601.11q0-34.48 24.26-58.74 24.26-24.26 58.74-24.26h618.26q34.48 0 58.74 24.26 24.26 24.26 24.26 58.74v474.26q0 34.48-24.26 58.74-24.26 24.26-58.74 24.26H231.87Zm-30-83h587.26v-474.26H170.87v505.5l31-31.24Zm-31 0v-474.26 474.26ZM276-384h264q15.3 0 25.65-10.29Q576-404.58 576-419.79t-10.35-25.71Q555.3-456 540-456H276q-15.3 0-25.65 10.29Q240-435.42 240-420.21t10.35 25.71Q260.7-384 276-384Zm0-132h408q15.3 0 25.65-10.29Q720-536.58 720-551.79t-10.35-25.71Q699.3-588 684-588H276q-15.3 0-25.65 10.29Q240-567.42 240-552.21t10.35 25.71Q260.7-516 276-516Zm0-132h408q15.3 0 25.65-10.29Q720-668.58 720-683.79t-10.35-25.71Q699.3-720 684-720H276q-15.3 0-25.65 10.29Q240-699.42 240-684.21t10.35 25.71Q260.7-648 276-648Z"/></svg>
